assets/icons/standard/live_chat_visitor.svg

<?xml version="1.0"?><svg xmlns="http://www.w3.org/2000/svg" width="100" height="100" viewBox="0 0 100 100"><path fill="#fff" d="m50 22.2c-16.6 0-30 12.5-30 28 0 5 1.4 9.6 3.8 13.7 0.3 0.5 0.4 1.1 0.2 1.6l-2.8 8.9c-0.5 1.6 1 3 2.6 2.5l8.8-3.1c0.6-0.2 1.2-0.1 1.7 0.2 4.6 2.7 10 4.2 15.8 4.2 16.6 0 30-12.5 30-28-0.1-15.5-13.6-28-30.1-28z m-5.5 26.5c2.4-1 2.7-1.9 2.7-2.9 0-1.1-0.6-2-1.4-2.7-1.4-1.2-2.2-3-2.2-5 0-3.8 2.4-7 6.4-7s6.3 3.2 6.3 7c0 2-0.7 3.8-2.1 5-0.8 0.7-1.4 1.6-1.4 2.7 0 1 0.3 1.9 2.6 2.8 3.4 1.4 6.4 3.4 6.6 6.4 0.2 2-1.3 4.1-3.2 4.1h-17.4c-1.9 0-3.4-2.1-3.4-4.1 0-3 3.2-4.8 6.5-6.3z m-3.8 20.5c-1.7 0-3.1-1.4-3.1-3.1 0-1.7 1.4-3.1 3.1-3.1 1.7 0 3.1 1.4 3.1 3.1s-1.4 3.1-3.1 3.1z m9.3 0c-1.7 0-3.1-1.4-3.1-3.1 0-1.7 1.4-3.1 3.1-3.1 1.7 0 3.1 1.4 3.1 3.1s-1.4 3.1-3.1 3.1z m9.3 0c-1.7 0-3.1-1.4-3.1-3.1 0-1.7 1.4-3.1 3.1-3.1s3.1 1.4 3.1 3.1-1.5 3.1-3.1 3.1z"></path></svg>

<svg xmlns="http://www.w3.org/2000/svg" x="0px" y="0px"
	 width="100px" height="100px" viewBox="0 0 100 100" enable-background="new 0 0 100 100" xml:space="preserve">
<path fill="#FFFFFF" d="M50,22.2c-16.6,0-30,12.5-30,28c0,5,1.4,9.6,3.8,13.7c0.3,0.5,0.4,1.1,0.2,1.6l-2.8,8.9
	c-0.5,1.6,1,3,2.6,2.5l8.8-3.1c0.6-0.2,1.2-0.1,1.7,0.2c4.6,2.7,10,4.2,15.8,4.2c16.6,0,30-12.5,30-28C80,34.7,66.5,22.2,50,22.2z
	 M44.5,48.7c2.4-1,2.7-1.9,2.7-2.9c0-1.1-0.6-2-1.4-2.7c-1.4-1.2-2.2-3-2.2-5c0-3.8,2.4-7,6.4-7s6.3,3.2,6.3,7c0,2-0.7,3.8-2.1,5
	c-0.8,0.7-1.4,1.6-1.4,2.7c0,1,0.3,1.9,2.6,2.8C58.8,50,61.8,52,62,55c0.2,2-1.3,4.1-3.2,4.1H41.4C39.5,59.1,38,57,38,55
	C38,52,41.2,50.2,44.5,48.7z M40.7,69.2c-1.7,0-3.1-1.4-3.1-3.1c0-1.7,1.4-3.1,3.1-3.1c1.7,0,3.1,1.4,3.1,3.1S42.4,69.2,40.7,69.2z
	 M50,69.2c-1.7,0-3.1-1.4-3.1-3.1c0-1.7,1.4-3.1,3.1-3.1c1.7,0,3.1,1.4,3.1,3.1S51.7,69.2,50,69.2z M59.3,69.2
	c-1.7,0-3.1-1.4-3.1-3.1c0-1.7,1.4-3.1,3.1-3.1s3.1,1.4,3.1,3.1S60.9,69.2,59.3,69.2z"/>
</svg>
